client/public/img/killfeed/hp18_killfeed.svg

<?xml version="1.0" encoding="UTF-8" standalone="no"?>
<svg
   width="88.240372"
   height="16"
   viewBox="0 0 88.240372 16"
   fill="none"
   version="1.1"
   id="svg9"
   xmlns="http://www.w3.org/2000/svg"
   xmlns:svg="http://www.w3.org/2000/svg">
  <defs
     id="defs9" />
  <path
     d="M 87.627396,0 76.161964,2.9908309 76.936432,3.3631557 76.161964,4.0229388 77.092526,4.4562111 76.161964,4.8850936 86.998521,8.968397 84.537722,5.9333608 88.240371,4.3344961 83.717355,2.7342714 Z"
     fill="#d9d9d9"
     id="path1"
     style="stroke-width:0.999959" />
  <path
     fill-rule="evenodd"
     clip-rule="evenodd"
     d="m 61.012882,3.9966699 c -0.0252,-0.01123 -0.05,-0.021779 -0.0744,-0.031519 -0.796368,-0.318537 -1.309347,-0.3952839 -2.053016,-0.49151 -0.0632,-0.00818 -0.147994,-0.017149 -0.211492,-0.017149 l -17.658179,0.044088 c -0.0185,-0.2121913 -0.0452,-0.4563413 -0.0814,-0.6667528 L 67.364323,3.1429647 67.577714,2.6746738 67.716108,2.5315997 67.885001,1.935834 c 0.0064,-0.021569 0.0134,-0.042508 0.0209,-0.062787 0.111995,-0.3042376 0.331786,-0.4626012 0.556077,-0.4626012 h 1.444441 c 0.23789,0 0.333386,0.3568955 0.229191,0.5921259 -0.0026,0.00599 -0.0054,0.011909 -0.0083,0.017709 l 0.117295,0.5441578 c 0.0676,0.045518 0.0818,0.085606 0.103196,0.1595035 l 0.106696,0.4551615 0.0289,3.399e-4 0.403684,-0.097006 h 4.238327 c 0.115795,0 0.456081,0.2147812 0.456081,0.8489853 0,0.6341842 -0.341586,0.8432356 -0.456081,0.8432356 h -4.238327 l -0.403684,-0.099426 -8.516552,-0.030039 c -0.0783,-0.076447 -0.162993,-0.1511138 -0.25279,-0.2223809 -0.0027,-0.00227 -0.0054,-0.00451 -0.0081,-0.00671 -0.0348,-0.028599 -0.0782,-0.061187 -0.127795,-0.095786 -0.176194,-0.1261246 -0.367586,-0.23754 -0.565278,-0.3236465 z m 14.063626,-0.054848 c 0,0.1675832 -0.410083,0.3034176 -0.915863,0.3034176 -0.505879,0 -0.915962,-0.1358344 -0.915962,-0.3034176 0,-0.1675631 0.410083,-0.3033976 0.915962,-0.3033976 0.50578,0 0.915863,0.1358345 0.915863,0.3033976 z M 74.160645,3.4959903 c 0.50578,0 0.915863,-0.067607 0.915863,-0.1509938 0,-0.083377 -0.410083,-0.1509839 -0.915863,-0.1509839 -0.505879,0 -0.915962,0.067607 -0.915962,0.1509839 0,0.083387 0.410083,0.1509938 0.915962,0.1509938 z m 0.915863,1.0427075 c 0,0.083377 -0.410083,0.1509738 -0.915863,0.1509738 -0.505879,0 -0.915962,-0.067597 -0.915962,-0.1509738 0,-0.083397 0.410083,-0.1510039 0.915962,-0.1510039 0.50578,0 0.915863,0.067607 0.915863,0.1510039 z m -6.640529,-2.501188 c -0.142894,0 -0.258689,0.1157953 -0.258689,0.2586295 0,0.1428442 0.115795,0.2586394 0.258689,0.2586394 h 1.285248 c 0.142794,0 0.258589,-0.1157952 0.258589,-0.2586394 0,-0.1428342 -0.115795,-0.2586295 -0.258589,-0.2586295 z"
     fill="#d9d9d9"
     id="path2"
     style="stroke-width:0.999959" />
  <path
     d="m 61.928845,5.0341575 c 0.186992,0.221251 0.310587,0.4501517 0.323686,0.6351541 0.0319,0.4516316 -0.147894,1.2429693 -0.147894,1.2429693 -0.0168,0.1007459 -0.059,0.1996518 -0.113795,0.2907281 -0.149294,0.2477899 -0.392584,0.4376522 -0.475481,0.4492717 L 41.050397,7.7973448 c 0.0058,-0.1007559 0.0111,-0.1986019 0.016,-0.293928 0.0663,-1.2907974 0.0506,-2.1181436 -0.0058,-3.4147607 -0.0033,-0.075287 -0.0069,-0.2151512 -0.0104,-0.293788 l 17.605281,-0.043948 c 0.0638,0.00836 0.125595,0.016349 0.185693,0.024129 0.742769,0.096116 1.226649,0.1587336 1.988518,0.4634611 0.0202,0.00807 0.0404,0.016479 0.0605,0.025169 0.195292,0.087076 0.423183,0.2272807 0.565677,0.3310865 0.0245,0.018289 0.0487,0.036899 0.0726,0.055768 0.0957,0.079677 0.22979,0.2057016 0.302088,0.2745988 0.0345,0.036088 0.0673,0.072507 0.0983,0.1090255 z"
     fill="#d9d9d9"
     id="path3"
     style="stroke-width:0.999959" />
  <path
     d="m 40.755909,7.7994047 0.0011,-0.018969 c 0.0884,-1.5317575 0.0685,-2.3842627 -4e-4,-3.9138603 -0.0048,-0.081857 -0.0104,-0.1899823 -0.0201,-0.3058275 -0.0197,-0.2349004 -0.0599,-0.5100292 -0.101695,-0.7342401 -0.0276,-0.146724 -0.0602,-0.269209 -0.0983,-0.3389661 l -0.590076,0.00647 V 1.9888718 H 39.413263 V 2.2120327 H 39.071477 V 1.9888718 H 38.538199 V 2.2120327 H 38.196413 V 1.9888718 H 37.663235 V 2.2120327 H 37.321449 V 1.9888718 H 36.788171 V 2.2120327 H 36.446385 V 1.9888718 H 35.913206 V 2.2120327 H 35.57142 V 1.9888718 H 35.038142 V 2.2120327 H 34.696356 V 1.9888718 H 34.163178 V 2.2120327 H 33.926987 V 1.2710311 c 0,-0.062267 -0.0788,-0.1111854 -0.167893,-0.1477839 -0.0239,-0.00982 -0.850865,-0.2488599 -1.421042,-0.3716349 -0.206191,-0.044378 -0.338686,-0.071957 -0.449481,-0.071957 h -0.443582 c -0.138495,0 -0.859365,0.4190029 -0.859365,0.5913758 V 2.2120327 H 30.321335 V 1.9888718 H 29.788056 V 2.2120327 H 29.44627 V 1.9888718 H 28.913092 V 2.2120327 H 28.571306 V 1.9888718 h -0.533278 v 0.6359641 c -1.205551,0.1627433 -1.888223,0.3394961 -2.874883,0.7897577 0.0027,0.00776 0.0051,0.015189 0.0072,0.022199 l 0.0058,0.020049 0.134595,0.9328119 0.535178,2.0134279 0.221991,0.5992155 c 0.627474,0.034059 1.076756,0.024499 1.739229,0.01041 0.0897,-0.00191 0.183193,-0.0039 0.281689,-0.00588 h 2.398202 c 0.387184,0.01162 0.672472,0.1003659 0.829066,0.2640793 0.0346,0.036109 0.066,0.061557 0.098,0.061557 h 1.821926 c 0.0066,-0.00555 0.0131,-0.011119 0.0196,-0.016709 l 5.337782,-0.048378 1.589835,0.3409561 h 0.333286 c 0.0028,0.1317846 0.0675,0.1918122 0.135295,0.1918122 z"
     fill="#d9d9d9"
     id="path4"
     style="stroke-width:0.999959" />
  <path
     d="m 62.301929,7.2449073 c 0.0413,-0.085776 0.0804,-0.2082915 0.0976,-0.3055975 0.0028,-0.013089 0.0062,-0.029329 0.0102,-0.048338 0.0032,-0.015389 0.0067,-0.032579 0.0105,-0.051398 0.0169,-0.083987 0.0392,-0.2008918 0.0604,-0.3326865 0.0412,-0.2556595 0.0835,-0.5957156 0.0649,-0.8583249 -0.0124,-0.1752529 -0.0834,-0.3481658 -0.174893,-0.5026195 -0.0205,-0.034569 -0.0425,-0.069097 -0.0659,-0.1034558 l 2.995378,0.037479 c 0.0778,0 0.445582,0.3713548 0.445582,1.0924754 0,0.7211106 -0.357186,0.9756502 -0.445582,0.9756502 l -2.895282,0.095456 c -0.0361,0.00126 -0.0702,0.00175 -0.102896,0.00136 z"
     fill="#d9d9d9"
     id="path5"
     style="stroke-width:0.999959" />
  <path
     d="M 21.12861,7.7979147 C 21.012614,7.766066 20.891019,7.7497667 20.767624,7.7560065 20.649129,7.5904732 20.600931,7.4596086 20.663829,7.129902 l 0.559477,-2.841394 c 0.0429,-0.1182652 0.0709,-0.1772128 0.129595,-0.2630293 -0.0057,-0.031539 0.0733,-0.066947 0.132794,-0.082097 0.0085,-0.00216 0.0166,-0.00392 0.024,-0.00518 L 24.81296,3.4696108 c 0.0383,-0.00529 0.0626,0.00609 0.0754,0.049838 l 0.133995,0.929112 0.543178,2.0434766 0.345785,0.9336119 c 0.428983,0.3064675 0.653274,0.5335483 0.825767,0.9299021 0.0369,0.084856 0.0715,0.1774727 0.105195,0.2802985 -0.0106,0.00139 -0.0205,0.00288 -0.0297,0.00448 -0.0499,0.00868 -0.0813,0.020689 -0.100196,0.038048 -0.0019,0.00174 -0.0036,0.00354 -0.0053,0.0054 -0.014,0.015789 -0.0191,0.035659 -0.0191,0.060847 0,0.042398 -0.150894,0.1019458 -0.183993,0.1145353 -0.294688,0.1118855 -0.616375,0.3087574 -0.862764,0.5647068 -0.279589,0.290689 -0.462782,0.620475 -0.50238,0.831566 -0.0205,0.111696 -0.0528,0.171293 -0.125795,0.26729 -0.100896,0.132694 -0.187392,0.455481 -0.24299,0.752369 -0.015,0.0804 -0.0215,0.114995 -0.0681,0.176493 -0.0922,0.121995 -0.163293,0.418183 -0.187992,0.709771 -0.0082,0.0966 -0.0289,0.134194 -0.0754,0.204891 -0.118596,0.180593 -0.156294,0.416483 -0.167394,0.711271 -0.0038,0.0995 -0.0121,0.149894 -0.0674,0.24579 -0.0553,0.0959 -0.098,0.237691 -0.098,0.324287 0,0 4e-4,0.0372 0.0015,0.0982 0.0035,0.182793 0.0144,0.579076 0.0459,0.824366 0.0288,0.224491 0.213492,0.49998 0.339086,0.658573 0.0179,0.0226 0.0346,0.0429 0.0495,0.0603 0.0343,0.04 0.0442,0.0578 0.0408,0.0883 -0.0106,0.093 -0.162394,0.175793 -0.26399,0.184993 -0.188692,0.0169 -1.362344,-0.0379 -2.308305,-0.0843 -0.135095,-0.0066 -0.265689,-0.0131 -0.387984,-0.0191 l -0.235491,-0.0117 c -0.218791,-0.0107 -0.395484,-0.0193 -0.502079,-0.0237 -0.195692,-0.0022 -0.897364,-0.0328 -1.115555,-0.183893 -0.0311,-0.0216 -0.0544,-0.0457 -0.0675,-0.0726 -0.0331,-0.0679 0.0508,-0.392084 0.101996,-0.560377 0.0171,-0.0561 0.0306,-0.0949 0.0349,-0.101096 0.0037,-0.0053 0.01,-0.0142 0.0161,-0.023 l 0.0081,-0.0115 0.0073,-0.0105 c 0.110696,-0.157394 0.180893,-0.273289 0.215991,-0.476181 0.0082,-0.0585 0.0052,-0.190592 6e-4,-0.257789 -0.0022,-0.0334 -0.0012,-0.0816 0.0084,-0.0955 0.067,-0.0963 0.257889,-0.464181 0.319587,-0.814467 0.0041,-0.0233 0.0076,-0.0466 0.0104,-0.0697 0.0088,-0.0717 0.0299,-0.106896 0.0649,-0.149494 0.109495,-0.132995 0.24699,-0.369485 0.327786,-0.617575 0.0054,-0.0165 0.0192,-0.0639 0.0241,-0.0815 0.0077,-0.0272 0.0166,-0.0483 0.049,-0.0731 0.075,-0.0494 0.103596,-0.161293 0.136895,-0.291988 l 10e-5,-3e-4 c 0.0024,-0.0093 0.0048,-0.0187 0.0072,-0.0283 l 0.0013,-0.0049 c 0.0073,-0.0285 0.0091,-0.0355 0.0228,-0.0546 0.146994,-0.195192 0.23439,-0.348486 0.289988,-0.552078 0.0037,-0.0135 0.0073,-0.0274 0.0109,-0.0415 0.018,-0.0726 0.0302,-0.112395 0.0783,-0.174493 0.0069,-0.0089 0.0145,-0.0182 0.023,-0.0281 0.232491,-0.273188 0.351086,-0.447881 0.49118,-0.769368 0.0094,-0.0214 0.0188,-0.0435 0.0284,-0.0663 0.264189,-0.46728 0.265089,-0.8847636 0.087,-1.2525886 -0.0254,-0.052548 -0.0545,-0.1040757 -0.087,-0.1545937 -0.0232,-0.041938 -0.0574,-0.089166 -0.100996,-0.1385343 C 21.688287,8.0347451 21.430497,7.8705618 21.12861,7.7979147 Z"
     fill="#d9d9d9"
     id="path6"
     style="stroke-width:0.999959" />
  <path
     d="M 21.011614,4.0295485 18.340623,4.410203 C 18.194829,4.430612 18.083034,4.429342 17.950639,4.398043 17.808545,4.364454 17.758747,4.363354 17.613353,4.382404 L 4.749778,6.1599916 C 4.6248531,6.1834606 4.5641856,6.2328986 4.5165276,6.3102155 L 2.0933365,6.641102 C 2.0979263,6.5253367 2.0618178,6.3937521 1.932753,6.3648332 1.6204258,6.2948261 1.3506868,6.3119154 0.99926106,6.4386402 0.44806057,6.5126272 -0.04981081,6.983428 0.0039957,7.3982811 L 0.0644742,7.888871 c 0.0699251,0.1178252 0.0764499,0.1869524 0.0389114,0.3156372 l 0.0631564,0.512309 c 0.0782678,0.1221851 0.0921472,0.198142 0.0435862,0.3535656 L 0.2699258,9.555463 c 0.0999669,0.108496 0.14061626,0.178893 0.0606055,0.338386 l 0.0451302,0.464581 c 0.14236219,0.115696 0.16939009,0.192092 0.0692972,0.330387 l 0.0594376,0.518279 c 0.0966621,0.0921 0.10828458,0.146094 0.0282668,0.24649 l 0.0657603,0.573376 c 0.0747679,0.0887 0.10408875,0.144594 0.0467281,0.264089 l 0.0638114,0.590076 c 0.0851675,0.0996 0.0865205,0.165794 0.0319927,0.295788 l 0.0570227,0.527379 c 0.0475001,0.0902 0.0597846,0.143594 0.0184633,0.249889 l 0.0520009,0.562078 c 0.072621,0.101295 0.0816406,0.164593 0.048082,0.284188 l 0.063357,0.434782 C 1.0459485,15.649514 1.3375969,15.9891 1.7697793,16 h 0.6234845 l 0.093256,-0.0553 C 2.654593,16.042 2.8155164,15.976 3.046347,15.8813 l 0.014469,-0.006 c 0.079907,-0.017 0.1189751,-0.0369 0.1662232,-0.113595 L 3.6977,15.578912 c 0.1897022,-0.110695 0.3066275,-0.269389 0.3477958,-0.503979 l 0.1848125,-1.047258 c 0.043988,-0.195492 0.1124054,-0.267089 0.3037776,-0.337086 l 2.5360764,-0.775568 0.1510239,0.529478 c 0,0 0.095016,0.159194 0.3764346,0.0688 0.2814185,-0.0903 0.2304906,-0.24189 0.2304906,-0.24189 L 7.6738087,12.730433 13.328728,11.001104 c 0.216091,-0.0879 0.333086,-0.137194 0.537178,-0.225991 l 4.086133,-2.1116336 c 0.937762,-0.4914099 1.533338,-0.6986615 2.498198,-0.8585149 -0.0388,-0.069697 -0.0717,-0.148734 -0.0906,-0.2426101 -0.0296,-0.147534 -0.019,-0.3059676 0.0158,-0.4883901 l 0.563877,-2.8644431 0.0078,-0.021289 c 0.0221,-0.060957 0.0421,-0.1113255 0.0645,-0.1586837 z"
     fill="#d9d9d9"
     id="path7"
     style="stroke-width:0.999959" />
  <path
     d="m 28.781097,7.327284 c 0.137295,-0.00296 0.272089,-0.01191 0.422583,-0.026649 h -1.111954 c -0.594676,0.01265 -1.305147,0.027649 -1.848925,0.00432 0.194192,0.1484839 0.354685,0.294348 0.48878,0.465201 0.123095,0.1568736 0.217691,0.3266167 0.299088,0.5252485 -0.0196,-0.1054657 -0.0251,-0.2051216 -0.0253,-0.2858783 -2e-4,-0.061238 0.0214,-0.146634 0.0619,-0.2381103 h 0.0785 c 0.0521,0.020239 0.0949,0.039268 0.0901,0.084397 -0.0815,0.7640988 0.0883,0.9160126 0.423483,1.1552228 0.0211,0.015019 0.0473,-0.00747 0.0315,-0.031479 -0.0483,-0.073197 -0.0648,-0.1175252 -0.0711,-0.2019017 -0.287389,-0.4976497 -0.157694,-0.8544752 0.0202,-1.0768761 0.176593,-0.220931 0.526678,-0.3275466 1.141153,-0.3734947 z"
     fill="#d9d9d9"
     id="path8"
     style="stroke-width:0.999959" />
  <path
     d="m 27.156464,8.6457301 0.192392,0.5586572 c 0.377284,0.2709787 0.822466,0.4134727 1.194751,0.4416717 0.557077,0.0422 1.558936,-0.122395 1.96482,-0.3948836 0.266089,-0.1786227 0.512879,-0.3386761 0.748869,-0.4918199 0.561677,-0.3643751 1.063257,-0.6897318 1.621534,-1.1330837 h -1.46474 c -0.0958,0 -0.168793,-0.038178 -0.211991,-0.067237 -0.0427,-0.028749 -0.0766,-0.062368 -0.0983,-0.085037 -0.0747,-0.078107 -0.26019,-0.1619134 -0.621275,-0.173363 h -0.754569 c 0.222991,0.091076 0.594075,0.3259667 0.660273,0.7088911 0.0895,0.5164289 0,0.6712426 -0.207292,0.8906737 -0.207391,0.219431 -0.548777,0.4541714 -1.399243,0.4491714 -0.72217,-0.0043 -1.133653,-0.2492496 -1.432041,-0.4819301 -0.0821,-0.064057 -0.145094,-0.1401643 -0.193192,-0.221711 z"
     fill="#d9d9d9"
     id="path9"
     style="stroke-width:0.999959" />
</svg>

<svg xmlns="http://www.w3.org/2000/svg" width="88.24" height="16" fill="none"><path fill="#d9d9d9" d="M87.627 0 76.162 2.99l.774.373-.774.66.93.433-.93.43 10.837 4.082-2.461-3.035 3.702-1.599-4.523-1.6Z" style="stroke-width:.999959"/><path fill="#d9d9d9" fill-rule="evenodd" d="m61.013 3.997-.075-.032c-.796-.318-1.309-.395-2.053-.491a2 2 0 0 0-.211-.018l-17.658.045a9 9 0 0 0-.082-.667l26.43.309.214-.468.138-.143.169-.596.02-.063c.113-.304.333-.463.557-.463h1.444c.238 0 .334.357.23.593l-.009.017.118.544c.067.046.081.086.103.16l.106.455h.03l.403-.097h4.238c.116 0 .456.215.456.85 0 .634-.341.843-.456.843h-4.238l-.404-.1-8.516-.03a3.3 3.3 0 0 0-.954-.648m14.064-.055c0 .167-.41.303-.916.303s-.916-.136-.916-.303c0-.168.41-.304.916-.304.505 0 .916.136.916.304m-.916-.446c.505 0 .916-.068.916-.151s-.41-.151-.916-.151-.916.068-.916.151.41.151.916.151m.916 1.043c0 .083-.41.15-.916.15s-.916-.067-.916-.15c0-.084.41-.151.916-.151.505 0 .916.067.916.15m-6.641-2.501a.259.259 0 1 0 0 .517h1.285a.259.259 0 0 0 0-.517z" clip-rule="evenodd" style="stroke-width:.999959"/><path fill="#d9d9d9" d="M61.929 5.034c.187.221.31.45.324.635.031.452-.148 1.243-.148 1.243a.9.9 0 0 1-.114.291c-.15.248-.393.438-.476.45l-20.465.144.016-.294c.067-1.29.051-2.118-.005-3.414-.004-.076-.007-.215-.01-.294l17.604-.044.186.024c.743.096 1.227.159 1.989.464l.06.025a3.5 3.5 0 0 1 .638.387c.096.08.23.205.303.274q.051.054.098.11M40.756 7.8l.001-.02c.088-1.531.069-2.384 0-3.913-.005-.082-.01-.19-.02-.306-.02-.235-.06-.51-.102-.734a1.3 1.3 0 0 0-.098-.34l-.59.007v-.505h-.534v.223h-.342v-.223h-.533v.223h-.342v-.223h-.533v.223h-.342v-.223h-.533v.223h-.342v-.223h-.533v.223h-.342v-.223h-.533v.223h-.342v-.223h-.533v.223h-.236v-.941c0-.062-.079-.111-.168-.148-.024-.01-.85-.249-1.42-.371a2.3 2.3 0 0 0-.45-.072h-.444c-.139 0-.86.419-.86.591v.941h-.264v-.223h-.533v.223h-.342v-.223h-.533v.223h-.342v-.223h-.533v.636c-1.206.163-1.888.34-2.875.79l.007.022.006.02.135.933.535 2.013.222.6c.627.033 1.077.024 1.74.01l.28-.006h2.399c.387.011.673.1.83.264.034.036.065.061.097.061h1.822l.02-.016 5.337-.049 1.59.341h.334c.002.132.067.192.135.192zm21.546-.555a1.4 1.4 0 0 0 .098-.306l.01-.048a9 9 0 0 0 .07-.384c.042-.256.084-.596.066-.858a1.2 1.2 0 0 0-.175-.503l-.066-.104 2.995.038c.078 0 .446.371.446 1.092s-.357.976-.446.976l-2.895.096z" style="stroke-width:.999959"/><path fill="#d9d9d9" d="M21.129 7.798a1.2 1.2 0 0 0-.361-.042c-.119-.166-.167-.296-.104-.626l.56-2.841a1 1 0 0 1 .129-.264c-.006-.031.073-.066.133-.082l.024-.005 3.303-.468c.038-.006.063.006.075.05l.134.929.544 2.043.345.934c.43.306.654.533.826.93q.055.126.105.28l-.03.004a.2.2 0 0 0-.1.038l-.005.006q-.02.023-.019.06c0 .043-.15.103-.184.115a2.4 2.4 0 0 0-.863.565c-.28.29-.463.62-.502.831a.55.55 0 0 1-.126.268c-.1.132-.187.455-.243.752-.015.08-.021.115-.068.177-.092.122-.163.418-.188.71a.36.36 0 0 1-.075.204c-.119.18-.157.417-.168.712a.44.44 0 0 1-.067.245.8.8 0 0 0-.098.325l.001.098c.004.183.015.579.046.824.029.225.214.5.34.659l.049.06c.034.04.044.058.04.088-.01.093-.162.176-.263.185-.19.017-1.363-.038-2.309-.084l-.388-.02-.235-.01c-.219-.011-.396-.02-.502-.024-.196-.003-.898-.033-1.116-.184a.2.2 0 0 1-.067-.073c-.033-.068.05-.392.102-.56a1 1 0 0 1 .035-.101l.016-.023.008-.012.007-.01c.11-.158.18-.274.216-.477a2 2 0 0 0 0-.257.2.2 0 0 1 .009-.096c.067-.096.258-.464.32-.814l.01-.07a.25.25 0 0 1 .065-.15 2 2 0 0 0 .352-.699.12.12 0 0 1 .049-.073c.075-.05.103-.161.137-.292l.007-.028.001-.005a.1.1 0 0 1 .023-.055 1.5 1.5 0 0 0 .301-.593.4.4 0 0 1 .101-.203 2.7 2.7 0 0 0 .52-.836c.264-.467.265-.884.087-1.252a1.5 1.5 0 0 0-.188-.293 1.4 1.4 0 0 0-.751-.47m-.117-3.768-2.671.38a1 1 0 0 1-.39-.012.7.7 0 0 0-.338-.016L4.75 6.16c-.125.023-.186.073-.233.15l-2.424.331c.005-.116-.031-.247-.16-.276-.313-.07-.582-.053-.934.074-.55.074-1.049.544-.995.96l.06.49c.07.118.077.187.04.316l.063.512c.078.122.092.198.043.353l.06.485c.1.109.14.18.06.339l.046.464c.142.116.17.193.069.33l.06.52c.096.091.108.145.028.246l.065.573c.075.089.105.145.047.264l.064.59c.085.1.086.166.032.296l.057.527c.047.09.06.144.018.25l.052.562c.073.102.082.165.049.284l.063.435c.066.415.358.754.79.765h.623l.094-.055c.168.097.329.031.56-.064l.014-.006c.08-.017.119-.037.166-.113l.47-.183c.19-.11.307-.27.348-.504l.185-1.047c.044-.196.113-.267.304-.337l2.536-.776.151.53s.095.159.377.068c.281-.09.23-.242.23-.242l-.154-.54L13.329 11c.216-.088.333-.137.537-.226l4.086-2.112c.938-.49 1.533-.698 2.498-.858a.8.8 0 0 1-.09-.243 1.3 1.3 0 0 1 .015-.488l.564-2.864.008-.022q.032-.089.065-.158" style="stroke-width:.999959"/><path fill="#d9d9d9" d="M28.781 7.327c.137-.003.272-.012.423-.026h-1.112a32 32 0 0 1-1.85.004c.195.148.355.294.49.465.123.157.217.327.299.525a1.6 1.6 0 0 1-.026-.285c0-.062.022-.147.062-.239h.079c.052.02.095.04.09.085-.082.764.088.916.423 1.155.021.015.048-.007.032-.031a.36.36 0 0 1-.071-.202c-.288-.498-.158-.855.02-1.077.177-.221.527-.328 1.141-.374" style="stroke-width:.999959"/><path fill="#d9d9d9" d="m27.156 8.646.193.558a2.43 2.43 0 0 0 1.195.442c.557.042 1.559-.122 1.964-.395.267-.178.513-.339.75-.492.561-.364 1.063-.69 1.62-1.133h-1.464a.4.4 0 0 1-.212-.067.6.6 0 0 1-.098-.085c-.075-.078-.26-.162-.621-.173h-.755c.223.09.594.326.66.709.09.516 0 .67-.207.89s-.549.454-1.4.45c-.721-.005-1.133-.25-1.431-.483a.8.8 0 0 1-.194-.221" style="stroke-width:.999959"/></svg>
